!!!COM: Haydn, Franz Joseph
!!!OPR: Symphony in B-flat Major
!!!OTL: Affettuoso 
!!!OMV: 2
!!!SCT: H I:98
!!!SCA: Thematisch-bibliographisches Werkevererzeichnis (A. van Hoboken)
!!!YOR: Dover Edition; reprint of Eulenburg Edition
!!!EED: Frances Bennion
!!!ENC: Frances Bennion
!!!CDT: 1732/3/31/-1809/5/31/
!!!OCY: Österreich
!!!YEC: Copyright (c) 1994, 2000 Center for Computer Assisted Research in the Humanities
!!!YEM: Rights to all derivative editions reserved.
!!!YEM: Refer to licensing agreement for further details.
!!!YEN: United States of America
**kern	**kern	**kern	**kern	**kern	**kern	**kern	**kern	**kern	**kern	**kern	**kern
*k[b-]	*k[b-]	*k[b-]	*k[b-]	*k[b-]	*k[b-]	*k[b-]	*k[b-]	*k[]	*k[]	*k[b-]	*k[b-]
*F:	*F:	*F:	*F:	*F:	*F:	*F:	*F:	*F:	*F:	*F:	*F:
*clefF	*clefC3	*clefF4	*clefF4	*clefF	*clefF	*clefF4	*clefF4	*clefF	*clefF	*clefF	*clefF
*M3/4	*M3/4	*M3/4	*M3/4	*M3/4	*M3/4	*M3/4	*M3/4	*M3/4	*M3/4	*M3/4	*M3/4
*tb48	*tb48	*tb48	*tb48	*tb48	*tb48	*tb48	*tb48	*tb48	*tb48	*tb48	*tb48
=1	=1	=1	=1	=1	=1	=1	=1	=1	=1	=1	=1
2.r	4c	4F	4F	2.r	2.r	2.r	2.r	2.r	2.r	2f	2A
.	4d	4D	4D	.	.	.	.	.	.	.	.
.	4d	4BB-	4BB-	.	.	.	.	.	.	4g	4B-
=2	=2	=2	=2	=2	=2	=2	=2	=2	=2	=2	=2
2.r	4B-	4C	4C	2.r	2.r	2.r	2.r	2.r	2.r	4e	4G
.	8A	8FF	8FF	.	.	.	.	.	.	8f	8A
.	4.r	4.r	4.r	.	.	.	.	.	.	4.r	4.r
=3	=3	=3	=3	=3	=3	=3	=3	=3	=3	=3	=3
2.r	4f	4F	4F	2.r	2.r	2.r	2.r	2.r	2.r	2a	2f
.	4d	4D	4D	.	.	.	.	.	.	.	.
.	4d	4BB-	4BB-	.	.	.	.	.	.	4b-	4g
=4	=4	=4	=4	=4	=4	=4	=4	=4	=4	=4	=4
2.r	4c	4C	4C	2.r	2.r	2.r	2.r	2.r	2.r	4a	4f
.	2r	8CC	8CC	.	.	.	.	.	.	8g	8e
.	.	4.r	4.r	.	.	.	.	.	.	4.r	4.r
=5	=5	=5	=5	=5	=5	=5	=5	=5	=5	=5	=5
8.ff	2.c	4F	4F	8.ff	4a	4c	4c	4cc	4e	8.ff	4f 4A
32ee	.	.	.	32ee	.	.	.	.	.	32ee	.
32dd	.	.	.	32dd	.	.	.	.	.	32dd	.
8cc	.	2G	2G	8cc	8b-	8E	8E	8dd	8g	8cc	2e 2B-
4.r	.	.	.	4.r	4.r	4.r	4.r	4.r	4.r	8b-	.
.	.	.	.	.	.	.	.	.	.	8g	.
.	.	.	.	.	.	.	.	.	.	8e	.
=6	=6	=6	=6	=6	=6	=6	=6	=6	=6	=6	=6
2.r	[4c	4A	4A	2.r	2.r	2.r	2.r	2.r	2.r	8f	4f
.	.	.	.	.	.	.	.	.	.	16.f	.
.	.	.	.	.	.	.	.	.	.	32a	.
.	8c]	8B-	8B-	.	.	.	.	.	.	8g	8e
.	4.r	4.r	4.r	.	.	.	.	.	.	4.r	4.r
=7	=7	=7	=7	=7	=7	=7	=7	=7	=7	=7	=7
8.ff	2.c	4F	4F	8.ff	4a	4c	4c	4cc	4e	8.ff	4A 4f
32ee	.	.	.	32ee	.	.	.	.	.	32ee	.
32dd	.	.	.	32dd	.	.	.	.	.	32dd	.
8cc	.	2G	2G	8cc	8b-	8E	8E	8dd	8g	8cc	2B- 2e
4.r	.	.	.	4.r	4.r	4.r	4.r	4.r	4.r	8b-	.
.	.	.	.	.	.	.	.	.	.	8g	.
.	.	.	.	.	.	.	.	.	.	8e	.
=8	=8	=8	=8	=8	=8	=8	=8	=8	=8	=8	=8
2.r	2F	2A	2A	2.r	2.r	2.r	2.r	2.r	2.r	8e-	4e- 4c
.	.	.	.	.	.	.	.	.	.	16.e-	.
.	.	.	.	.	.	.	.	.	.	32a	.
.	.	.	.	.	.	.	.	.	.	8cc	2r
.	.	.	.	.	.	.	.	.	.	4.r	.
.	4r	4r	4r	.	.	.	.	.	.	.	.
=9	=9	=9	=9	=9	=9	=9	=9	=9	=9	=9	=9
2.r	4G	4BB-	4BB-	2.r	2.r	2.r	2.r	2.r	2.r	24r	4d
.	.	.	.	.	.	.	.	.	.	24d	.
.	.	.	.	.	.	.	.	.	.	24e	.
.	.	.	.	.	.	.	.	.	.	24f#	.
.	.	.	.	.	.	.	.	.	.	24g	.
.	.	.	.	.	.	.	.	.	.	24a	.
.	4r	4r	4r	.	.	.	.	.	.	24b-	4r
.	.	.	.	.	.	.	.	.	.	24cc	.
.	.	.	.	.	.	.	.	.	.	24dd	.
.	.	.	.	.	.	.	.	.	.	24cc	.
.	.	.	.	.	.	.	.	.	.	24b-	.
.	.	.	.	.	.	.	.	.	.	24a	.
.	4E	4C	4C	.	.	.	.	.	.	24g	4B-
.	.	.	.	.	.	.	.	.	.	24f	.
.	.	.	.	.	.	.	.	.	.	24e	.
.	.	.	.	.	.	.	.	.	.	24d	.
.	.	.	.	.	.	.	.	.	.	24c	.
.	.	.	.	.	.	.	.	.	.	24e	.
=10	=10	=10	=10	=10	=10	=10	=10	=10	=10	=10	=10
2.r	4F	4F	4F	2.r	2.r	2.r	2.r	2.r	2.r	8f	8A
.	.	.	.	.	.	.	.	.	.	16r	16r
.	.	.	.	.	.	.	.	.	.	16c	16A
.	2r	2r	2r	.	.	.	.	.	.	8c	8A
.	.	.	.	.	.	.	.	.	.	4.r	4.r
=11	=11	=11	=11	=11	=11	=11	=11	=11	=11	=11	=11
4cc	4c	4F	4F	2ff	2a	2.r	2.r	2.r	2.r	2f	2A
8dd	4d	4D	4D	.	.	.	.	.	.	.	.
4.r	.	.	.	.	.	.	.	.	.	.	.
.	4G	4BB-	4BB-	4gg	4dd	.	.	.	.	4g	4d
=12	=12	=12	=12	=12	=12	=12	=12	=12	=12	=12	=12
4g	4G	4AA	4AA	4ee	4cc#	2.r	2.r	2.r	2.r	4e	4c#
8f	8F	8DD	8DD	8ff	8dd	.	.	.	.	8f	8d
4.r	4.r	4.r	4.r	4.r	4.r	.	.	.	.	4.r	4.r
=13	=13	=13	=13	=13	=13	=13	=13	=13	=13	=13	=13
2.r	2d	2BB	2BB	2ff	2dd	2.r	2.r	2.r	2.r	2f	4G
.	.	.	.	.	.	.	.	.	.	.	4A-
.	8c	8C	8C	4ee	4cc	.	.	.	.	4e	8G
.	8A	8FF#	8FF#	.	.	.	.	.	.	.	8c
=14	=14	=14	=14	=14	=14	=14	=14	=14	=14	=14	=14
2.r	4G	4GG	4GG	4ee	4cc	4.r	4.r	2.r	2.r	4e	4c
.	2r	8G	8G	8dd	8b	.	.	.	.	8d	8B
.	.	4.r	4.r	4.r	4.r	8A	8F	.	.	4.r	4.r
.	.	.	.	.	.	8G	8E	.	.	.	.
.	.	.	.	.	.	8F	8D	.	.	.	.
=15	=15	=15	=15	=15	=15	=15	=15	=15	=15	=15	=15
8.cc	16c	4C	4C	2.r	2.r	4E	4C	2.r	2.r	8.cc	16e
.	16G	.	.	.	.	.	.	.	.	.	16G
.	16c	.	.	.	.	.	.	.	.	.	16e
32dd	16G	.	.	.	.	.	.	.	.	32dd	16G
32cc	.	.	.	.	.	.	.	.	.	32cc	.
8b	16d	2r	2r	.	.	2r	2r	.	.	8b	16f
.	16G	.	.	.	.	.	.	.	.	.	16G
8cc	16c	.	.	.	.	.	.	.	.	8cc	16e
.	16G	.	.	.	.	.	.	.	.	.	16G
8dd	16B	.	.	.	.	.	.	.	.	8dd	16d
.	16G	.	.	.	.	.	.	.	.	.	16G
8ee	16c	.	.	.	.	.	.	.	.	8ee	16c
.	16G	.	.	.	.	.	.	.	.	.	16G
=16	=16	=16	=16	=16	=16	=16	=16	=16	=16	=16	=16
8.ff	16d	4GG	4GG	4.r	4.r	4.r	4.r	2.r	2.r	8.ff	16B
.	16G	.	.	.	.	.	.	.	.	.	16G
.	16d	.	.	.	.	.	.	.	.	.	16B
16dd	16G	.	.	.	.	.	.	.	.	16dd	16G
8b	16B	2r	2r	.	.	.	.	.	.	8b	16d
.	16G	.	.	.	.	.	.	.	.	.	16G
4.r	16d	.	.	8dd	8b	8f	8G	.	.	4.r	16B
.	16G	.	.	.	.	.	.	.	.	.	16G
.	16B	.	.	8dd	8b	8f	8G	.	.	.	16d
.	16G	.	.	.	.	.	.	.	.	.	16G
.	16d	.	.	8dd	8b	8f	8G	.	.	.	16B
.	16G	.	.	.	.	.	.	.	.	.	16G
=17	=17	=17	=17	=17	=17	=17	=17	=17	=17	=17	=17
8.dd	16B	4G	4G	4dd	4b	4f	4G	2.r	2.r	8.dd	16f
.	16G	.	.	.	.	.	.	.	.	.	16G
.	16B	.	.	.	.	.	.	.	.	.	16f
32ee	16G	.	.	.	.	.	.	.	.	32ee	16G
32dd	.	.	.	.	.	.	.	.	.	32dd	.
8cc	16g	2r	2r	2r	2r	2r	2r	.	.	8cc	16e
.	16G	.	.	.	.	.	.	.	.	.	16G
8dd	16f	.	.	.	.	.	.	.	.	8dd	16B
.	16G	.	.	.	.	.	.	.	.	.	16G
8ee	16e	.	.	.	.	.	.	.	.	8ee	16c
.	16G	.	.	.	.	.	.	.	.	.	16G
8ff	16B	.	.	.	.	.	.	.	.	8ff	16d
.	16G	.	.	.	.	.	.	.	.	.	16G
=18	=18	=18	=18	=18	=18	=18	=18	=18	=18	=18	=18
8.gg	16C	4C	4C	4.r	4.r	4.r	4.r	2.r	2.r	8.gg	16e
.	16G	.	.	.	.	.	.	.	.	.	16G
.	16E	.	.	.	.	.	.	.	.	.	16c
16ee	16G	.	.	.	.	.	.	.	.	16ee	16G
8cc	16c	2r	2r	.	.	.	.	.	.	8cc	16e
.	16G	.	.	.	.	.	.	.	.	.	16G
4.r	16e	.	.	8gg	8ee	8e	8c	.	.	4.r	16c
.	16G	.	.	.	.	.	.	.	.	.	16G
.	16c	.	.	8gg	8ee	8e	8c	.	.	.	16e
.	16G	.	.	.	.	.	.	.	.	.	16G
.	16e	.	.	8gg	8ee	8e	8c	.	.	.	16c
.	16G	.	.	.	.	.	.	.	.	.	16G
=19	=19	=19	=19	=19	=19	=19	=19	=19	=19	=19	=19
8.gg	16e	4AA	4AA	2gg	2cc#	4e	4c#	2.r	2.r	8.gg	16c#
.	16A	.	.	.	.	.	.	.	.	.	16A
.	16c#	.	.	.	.	.	.	.	.	.	16e
16ee	16A	.	.	.	.	.	.	.	.	16ee	16A
8cc#	16e	4r	4r	.	.	2r	2r	.	.	8cc#	16g
.	16A	.	.	.	.	.	.	.	.	.	16A
16cc#	16c#	.	.	.	.	.	.	.	.	16cc#	16e
16gg	16A	.	.	.	.	.	.	.	.	16gg	16A
8r	16d	8D	8D	4ff#	4cc	.	.	.	.	8r	16f#
.	16A	.	.	.	.	.	.	.	.	.	16A
8ff#	16f#	8r	8r	.	.	.	.	.	.	8ff#	16d
.	16A	.	.	.	.	.	.	.	.	.	16A
=20	=20	=20	=20	=20	=20	=20	=20	=20	=20	=20	=20
8.ff	16d	4GG	4GG	2ff	2b	2d	2d	2.r	2.r	8.ff	16B
.	16G	.	.	.	.	.	.	.	.	.	16G
.	16B	.	.	.	.	.	.	.	.	.	16d
16dd	16G	.	.	.	.	.	.	.	.	16dd	16G
8b	16d	4r	4r	.	.	.	.	.	.	8b	16f
.	16G	.	.	.	.	.	.	.	.	.	16G
16b	16B	.	.	.	.	.	.	.	.	16b	16d
16ff	16G	.	.	.	.	.	.	.	.	16ff	16G
8r	16c	8C	8C	4ee	4cc	8c	8c	.	.	8r	16e
.	16G	.	.	.	.	.	.	.	.	.	16G
8ee	16e	8r	8r	.	.	8r	8r	.	.	8ee	16c
.	16G	.	.	.	.	.	.	.	.	.	16G
=21	=21	=21	=21	=21	=21	=21	=21	=21	=21	=21	=21
24r	4a	4F	4F	8dd	8a	2.r	2.r	2.r	2.r	24r	8.A
24cc#	.	.	.	.	.	.	.	.	.	24cc#	.
24dd	.	.	.	.	.	.	.	.	.	24dd	.
24ee	.	.	.	8r	3..r	.	.	.	.	24ee	.
24ff	.	.	.	.	.	.	.	.	.	24ff	.
.	.	.	.	.	.	.	.	.	.	.	16f
24aa	.	.	.	.	.	.	.	.	.	24aa	.
6..cc	4g	2G	2G	8cc	.	.	.	.	.	6..cc	4e
.	.	.	.	8r	.	.	.	.	.	.	.
.	4f	.	.	8g	.	.	.	.	.	.	4d
24b	.	.	.	.	.	.	.	.	.	24b	.
24cc	.	.	.	.	.	.	.	.	.	24cc	.
24dd	.	.	.	8r	.	.	.	.	.	24dd	.
24ff	.	.	.	.	.	.	.	.	.	24ff	.
24b	.	.	.	.	24r	.	.	.	.	24b	.
=22	=22	=22	=22	=22	=22	=22	=22	=22	=22	=22	=22
8cc	4e	4C	4C	8e	2.r	2.r	2.r	2.r	2.r	4cc	4e
3..r	.	.	.	3..r	.	.	.	.	.	.	.
.	8C	8c	8c	.	.	.	.	.	.	24r	2r
.	.	.	.	.	.	.	.	.	.	24c	.
.	.	.	.	.	.	.	.	.	.	24d	.
.	4.r	4.r	4.r	.	.	.	.	.	.	24e	.
.	.	.	.	.	.	.	.	.	.	24f	.
.	.	.	.	.	.	.	.	.	.	24g	.
.	.	.	.	.	.	.	.	.	.	24a	.
.	.	.	.	.	.	.	.	.	.	24b	.
.	.	.	.	.	.	.	.	.	.	24cc	.
.	.	.	.	.	.	.	.	.	.	24dd	.
.	.	.	.	.	.	.	.	.	.	24ee	.
24r	.	.	.	24r	.	.	.	.	.	24ff	.
=23	=23	=23	=23	=23	=23	=23	=23	=23	=23	=23	=23
8.gg	16e	4AA	4AA	4r	2.r	2g	2c#	2.r	2.r	8.gg	16c#
.	16A	.	.	.	.	.	.	.	.	.	16A
.	16c#	.	.	.	.	.	.	.	.	.	16e
16ee	16A	.	.	.	.	.	.	.	.	16ee	16A
8cc#	16e	4r	4r	4bb-	.	.	.	.	.	8cc#	16g
.	16A	.	.	.	.	.	.	.	.	.	16A
16cc#	16c#	.	.	.	.	.	.	.	.	16cc#	16e
16gg	16A	.	.	.	.	.	.	.	.	16gg	16A
8r	16d	8D	8D	8aa	.	4f#	4c	.	.	8r	16f#
.	16A	.	.	.	.	.	.	.	.	.	16A
8ff#	16f#	8r	8r	8r	.	.	.	.	.	8ff#	16c
.	16A	.	.	.	.	.	.	.	.	.	16A
=24	=24	=24	=24	=24	=24	=24	=24	=24	=24	=24	=24
8.ff	16d	4GG	4GG	4r	2.r	2f	2B	2.r	2.r	8.ff	16B
.	16G	.	.	.	.	.	.	.	.	.	16G
.	16B	.	.	.	.	.	.	.	.	.	16d
16dd	16G	.	.	.	.	.	.	.	.	16dd	16G
8b	16d	4r	4r	4aa-	.	.	.	.	.	8b	16f
.	16G	.	.	.	.	.	.	.	.	.	16G
16b	16B	.	.	.	.	.	.	.	.	16b	16d
16ff	16G	.	.	.	.	.	.	.	.	16ff	16G
8r	16c	8C	8C	8gg	.	4e	4c	.	.	8r	16e
.	16G	.	.	.	.	.	.	.	.	.	16G
8ee	16e	8r	8r	8r	.	.	.	.	.	8ee	16c
.	16G	.	.	.	.	.	.	.	.	.	16G
=25	=25	=25	=25	=25	=25	=25	=25	=25	=25	=25	=25
24r	4a	4F	4F	2.r	2.r	8A	8F	2.r	2.r	24r	8.A
24cc#	.	.	.	.	.	.	.	.	.	24cc#	.
24dd	.	.	.	.	.	.	.	.	.	24dd	.
24ee	.	.	.	.	.	8r	8r	.	.	24ee	.
24ff	.	.	.	.	.	.	.	.	.	24ff	.
.	.	.	.	.	.	.	.	.	.	.	16f
24aa	.	.	.	.	.	.	.	.	.	24aa	.
6..cc	4g	2G	2G	.	.	8G	8G	.	.	6..cc	4e
.	.	.	.	.	.	8r	8r	.	.	.	.
.	4f	.	.	.	.	8GG	8GG	.	.	.	4d
24b	.	.	.	.	.	.	.	.	.	24b	.
24cc	.	.	.	.	.	.	.	.	.	24cc	.
24dd	.	.	.	.	.	8r	8r	.	.	24dd	.
24ff	.	.	.	.	.	.	.	.	.	24ff	.
24b	.	.	.	.	.	.	.	.	.	24b	.
=26	=26	=26	=26	=26	=26	=26	=26	=26	=26	=26	=26
4cc	24cc	4C	4C	[2.ccc	4cc	4C	4C	2.g	2.g	24cc	24c
.	24cc	.	.	.	.	.	.	.	.	24ccc	24cc
.	24cc	.	.	.	.	.	.	.	.	24ccc	24cc
.	24cc	.	.	.	.	.	.	.	.	24ccc	24cc
.	24cc	.	.	.	.	.	.	.	.	24ccc	24cc
.	24cc	.	.	.	.	.	.	.	.	24ccc	24cc
4ccc	24ee-	4E-	4E-	.	4ee-	4E-	4E-	.	.	24ccc	24cc
.	24ee-	.	.	.	.	.	.	.	.	24ccc	24cc
.	24ee-	.	.	.	.	.	.	.	.	24ccc	24cc
.	24ee-	.	.	.	.	.	.	.	.	24ccc	24cc
.	24ee-	.	.	.	.	.	.	.	.	24ccc	24cc
.	24ee-	.	.	.	.	.	.	.	.	24ccc	24cc
4ccc	24ee-	4A-	4A-	.	4ee-	4A-	4A-	.	.	24ccc	24cc
.	24ee-	.	.	.	.	.	.	.	.	24ccc	24cc
.	24ee-	.	.	.	.	.	.	.	.	24ccc	24cc
.	24ee-	.	.	.	.	.	.	.	.	24ccc	24cc
.	24ee-	.	.	.	.	.	.	.	.	24ccc	24cc
.	24ee-	.	.	.	.	.	.	.	.	24ccc	24cc
=27	=27	=27	=27	=27	=27	=27	=27	=27	=27	=27	=27
2ff	24a-	24d-	24d-	4ccc]	4a-	2d-	2d-	2cc	2cc	24ccc	24ff
.	24a-	24d-	24d-	.	.	.	.	.	.	24ccc	24ff
.	24a-	24d-	24d-	.	.	.	.	.	.	24ccc	24ff
.	24a-	24d-	24d-	.	.	.	.	.	.	24ccc	24ff
.	24a-	24d-	24d-	.	.	.	.	.	.	24ccc	24ff
.	24a-	24d-	24d-	.	.	.	.	.	.	24ccc	24ff
.	24b-	24d-	24d-	4bb-	4b-	.	.	.	.	24bb-	24ff
.	24b-	24d-	24d-	.	.	.	.	.	.	24bb-	24ff
.	24b-	24d-	24d-	.	.	.	.	.	.	24bb-	24ff
.	24b-	24d-	24d-	.	.	.	.	.	.	24bb-	24ff
.	24b-	24d-	24d-	.	.	.	.	.	.	24bb-	24ff
.	24b-	24d-	24d-	.	.	.	.	.	.	24bb-	24ff
4gg-	24cc	24e-	24e-	4aa	4cc	4e-	4e-	4r	4r	24aa	24gg-
.	24cc	24e-	24e-	.	.	.	.	.	.	24aa	24gg-
.	24cc	24e-	24e-	.	.	.	.	.	.	24aa	24gg-
.	24cc	24e-	24e-	.	.	.	.	.	.	24aa	24gg-
.	24cc	24e-	24e-	.	.	.	.	.	.	24aa	24gg-
.	24cc	24e-	24e-	.	.	.	.	.	.	24aa	24gg-
=28	=28	=28	=28	=28	=28	=28	=28	=28	=28	=28	=28
4ff	24b-	24d-	24d-	4bb-	4b-	4d-	4d-	2.cc	2.cc	24bb-	24ff
.	24b-	24d-	24d-	.	.	.	.	.	.	24bb-	24ff
.	24b-	24d-	24d-	.	.	.	.	.	.	24bb-	24ff
.	24b-	24d-	24d-	.	.	.	.	.	.	24bb-	24ff
.	24b-	24d-	24d-	.	.	.	.	.	.	24bb-	24ff
.	24b-	24d-	24d-	.	.	.	.	.	.	24bb-	24ff
4aa	24e-	24c	24c	4ccc	4ee-	4c	4c	.	.	24ccc	24aa
.	24e-	24c	24c	.	.	.	.	.	.	24ccc	24aa
.	24e-	24c	24c	.	.	.	.	.	.	24ccc	24aa
.	24e-	24c	24c	.	.	.	.	.	.	24ccc	24aa
.	24e-	24c	24c	.	.	.	.	.	.	24ccc	24aa
.	24e-	24c	24c	.	.	.	.	.	.	24ccc	24aa
4bb-	24d-	24B-	24B-	4ddd-	8dd-	4B-	4B-	.	.	24ddd-	24bb-
.	24d-	24B-	24B-	.	.	.	.	.	.	24ddd-	24bb-
.	24d-	24B-	24B-	.	.	.	.	.	.	24ddd-	24bb-
.	24d-	24B-	24B-	.	8b-	.	.	.	.	24ddd-	24bb-
.	24d-	24B-	24B-	.	.	.	.	.	.	24ddd-	24bb-
.	24d-	24B-	24B-	.	.	.	.	.	.	24ddd-	24bb-
=29	=29	=29	=29	=29	=29	=29	=29	=29	=29	=29	=29
4ee-	24e-	24e-	24e-	4ccc	4a-	4e-	4e-	2.r	2.r	8.ccc	8.aa-
.	24e-	24e-	24e-	.	.	.	.	.	.	.	.
.	24e-	24e-	24e-	.	.	.	.	.	.	.	.
.	24e-	24e-	24e-	.	.	.	.	.	.	.	.
.	24e-	24e-	24e-	.	.	.	.	.	.	.	.
.	.	.	.	.	.	.	.	.	.	32ddd-	32bb-
.	24e-	24e-	24e-	.	.	.	.	.	.	.	.
.	.	.	.	.	.	.	.	.	.	32ccc	32aa-
2r	8e-	8e-	8e-	8bb-	8g	8E-	8E-	.	.	8bb-	24gg
.	.	.	.	.	.	.	.	.	.	.	24e-
.	.	.	.	.	.	.	.	.	.	.	24e-
.	4.r	4.r	4.r	4.r	4.r	4.r	4.r	.	.	4.r	24e-
.	.	.	.	.	.	.	.	.	.	.	24e-
.	.	.	.	.	.	.	.	.	.	.	24e-
.	.	.	.	.	.	.	.	.	.	.	24e-
.	.	.	.	.	.	.	.	.	.	.	24f
.	.	.	.	.	.	.	.	.	.	.	24e-
.	.	.	.	.	.	.	.	.	.	.	24d-
.	.	.	.	.	.	.	.	.	.	.	24c
.	.	.	.	.	.	.	.	.	.	.	24B-
=30	=30	=30	=30	=30	=30	=30	=30	=30	=30	=30	=30
2.r	4c	4AA-	4AA-	2.r	2.r	2.r	2.r	2.r	2.r	8.aa-	24A-
.	.	.	.	.	.	.	.	.	.	.	24c
.	.	.	.	.	.	.	.	.	.	.	24e-
.	.	.	.	.	.	.	.	.	.	.	24a-
.	.	.	.	.	.	.	.	.	.	.	24e-
.	.	.	.	.	.	.	.	.	.	32gg	.
.	.	.	.	.	.	.	.	.	.	.	24c
.	.	.	.	.	.	.	.	.	.	32ff	.
.	2r	2r	2r	.	.	.	.	.	.	4ee-	24A-
.	.	.	.	.	.	.	.	.	.	.	24c
.	.	.	.	.	.	.	.	.	.	.	24e-
.	.	.	.	.	.	.	.	.	.	.	24a-
.	.	.	.	.	.	.	.	.	.	.	24e-
.	.	.	.	.	.	.	.	.	.	.	24c
.	.	.	.	.	.	.	.	.	.	16dd-	24A-
.	.	.	.	.	.	.	.	.	.	.	24c
.	.	.	.	.	.	.	.	.	.	16cc	.
.	.	.	.	.	.	.	.	.	.	.	24e-
.	.	.	.	.	.	.	.	.	.	16b-	24a-
.	.	.	.	.	.	.	.	.	.	.	24e-
.	.	.	.	.	.	.	.	.	.	16a-	.
.	.	.	.	.	.	.	.	.	.	.	24c
=31	=31	=31	=31	=31	=31	=31	=31	=31	=31	=31	=31
4.r	4d-	4E-	4E-	4.r	4.r	4.r	4.r	2.r	2.r	8g	24B-
.	.	.	.	.	.	.	.	.	.	.	24d-
.	.	.	.	.	.	.	.	.	.	.	24e-
.	.	.	.	.	.	.	.	.	.	16.g	24g
.	.	.	.	.	.	.	.	.	.	.	24e-
.	.	.	.	.	.	.	.	.	.	.	24d-
.	.	.	.	.	.	.	.	.	.	32b-	.
.	2r	8r	2r	.	.	.	.	.	.	8dd-	24B-
.	.	.	.	.	.	.	.	.	.	.	24d-
.	.	.	.	.	.	.	.	.	.	.	24e-
8gg	.	8e-	.	8dd-	8b-	8E-	8E-	.	.	4.r	24g
.	.	.	.	.	.	.	.	.	.	.	24e-
.	.	.	.	.	.	.	.	.	.	.	24d-
8gg	.	8e-	.	8dd-	8b-	8E-	8E-	.	.	.	24B-
.	.	.	.	.	.	.	.	.	.	.	24d-
.	.	.	.	.	.	.	.	.	.	.	24e-
8gg	.	8e-	.	8dd-	8b-	8E-	8E-	.	.	.	24g
.	.	.	.	.	.	.	.	.	.	.	24e-
.	.	.	.	.	.	.	.	.	.	.	24d-
=32	=32	=32	=32	=32	=32	=32	=32	=32	=32	=32	=32
2.gg	4d-	4e-	4E-	2.dd-	2.b-	2.E-	2.E-	2.r	2.r	8.bb-	24G
.	.	.	.	.	.	.	.	.	.	.	24B-
.	.	.	.	.	.	.	.	.	.	.	24d-
.	.	.	.	.	.	.	.	.	.	.	24e-
.	.	.	.	.	.	.	.	.	.	.	24d-
.	.	.	.	.	.	.	.	.	.	48aa-	.
.	.	.	.	.	.	.	.	.	.	48gg	24B-
.	.	.	.	.	.	.	.	.	.	48ff	.
.	2r	2r	2r	.	.	.	.	.	.	[6..ee-	24G
.	.	.	.	.	.	.	.	.	.	.	24B-
.	.	.	.	.	.	.	.	.	.	.	24d-
.	.	.	.	.	.	.	.	.	.	.	24e-
.	.	.	.	.	.	.	.	.	.	.	24d-
.	.	.	.	.	.	.	.	.	.	.	24B-
.	.	.	.	.	.	.	.	.	.	.	24G
.	.	.	.	.	.	.	.	.	.	48ee-]	24B-
.	.	.	.	.	.	.	.	.	.	16dd-	.
.	.	.	.	.	.	.	.	.	.	.	24d-
.	.	.	.	.	.	.	.	.	.	16b-	24e-
.	.	.	.	.	.	.	.	.	.	.	24d-
.	.	.	.	.	.	.	.	.	.	16g	.
.	.	.	.	.	.	.	.	.	.	.	24B-
=33	=33	=33	=33	=33	=33	=33	=33	=33	=33	=33	=33
4aa-	4c	4A-	4AA-	4cc	4cc	2.A-	2.A-	2.r	2.r	8a-	24A-
.	.	.	.	.	.	.	.	.	.	.	24c
.	.	.	.	.	.	.	.	.	.	.	24e-
.	.	.	.	.	.	.	.	.	.	16.a-	24a-
.	.	.	.	.	.	.	.	.	.	.	24e-
.	.	.	.	.	.	.	.	.	.	.	24c
.	.	.	.	.	.	.	.	.	.	32cc	.
2r	2r	8r	2r	8r	8r	.	.	.	.	8ee-	24A-
.	.	.	.	.	.	.	.	.	.	.	24c
.	.	.	.	.	.	.	.	.	.	.	24e-
.	.	8A-	.	8ee-	8cc	.	.	.	.	4.r	24a-
.	.	.	.	.	.	.	.	.	.	.	24e-
.	.	.	.	.	.	.	.	.	.	.	24c
.	.	8A-	.	8ee-	8cc	.	.	.	.	.	24A-
.	.	.	.	.	.	.	.	.	.	.	24c
.	.	.	.	.	.	.	.	.	.	.	24e-
.	.	8A-	.	8ee-	8cc	.	.	.	.	.	24a-
.	.	.	.	.	.	.	.	.	.	.	24e-
.	.	.	.	.	.	.	.	.	.	.	24c
=34	=34	=34	=34	=34	=34	=34	=34	=34	=34	=34	=34
2.r	4G	4G	4GG	4.ee-	4.cc	2.G	2.G	2.r	2.r	8g	24G
.	.	.	.	.	.	.	.	.	.	.	24c
.	.	.	.	.	.	.	.	.	.	.	24e-
.	.	.	.	.	.	.	.	.	.	16.g	24g
.	.	.	.	.	.	.	.	.	.	.	24e-
.	.	.	.	.	.	.	.	.	.	.	24c
.	.	.	.	.	.	.	.	.	.	32cc	.
.	2r	8r	2r	.	.	.	.	.	.	8ee-	24G
.	.	.	.	.	.	.	.	.	.	.	24c
.	.	.	.	.	.	.	.	.	.	.	24e-
.	.	8G	.	8ee-	8cc	.	.	.	.	4.r	24g
.	.	.	.	.	.	.	.	.	.	.	24e-
.	.	.	.	.	.	.	.	.	.	.	24c
.	.	8G	.	8ee-	8cc	.	.	.	.	.	24G
.	.	.	.	.	.	.	.	.	.	.	24c
.	.	.	.	.	.	.	.	.	.	.	24e-
.	.	8G	.	8ee-	8cc	.	.	.	.	.	24g
.	.	.	.	.	.	.	.	.	.	.	24e-
.	.	.	.	.	.	.	.	.	.	.	24c
=35	=35	=35	=35	=35	=35	=35	=35	=35	=35	=35	=35
2.r	4F#	4F#	4FF#	2ee-	2cc	2.F#	2.F#	2.r	2.r	8cc	24A
.	.	.	.	.	.	.	.	.	.	.	24c
.	.	.	.	.	.	.	.	.	.	.	24e-
.	.	.	.	.	.	.	.	.	.	16.cc	24f#
.	.	.	.	.	.	.	.	.	.	.	24e-
.	.	.	.	.	.	.	.	.	.	.	24c
.	.	.	.	.	.	.	.	.	.	32dd	.
.	2r	8r	2r	.	.	.	.	.	.	4ee-	24A
.	.	.	.	.	.	.	.	.	.	.	24c
.	.	.	.	.	.	.	.	.	.	.	24e-
.	.	8F#	.	.	.	.	.	.	.	.	24f#
.	.	.	.	.	.	.	.	.	.	.	24e-
.	.	.	.	.	.	.	.	.	.	.	24c
.	.	8F#	.	4cc	4ee-	.	.	.	.	4f#	24A
.	.	.	.	.	.	.	.	.	.	.	24c
.	.	.	.	.	.	.	.	.	.	.	24e-
.	.	8F#	.	.	.	.	.	.	.	.	24f#
.	.	.	.	.	.	.	.	.	.	.	24e-
.	.	.	.	.	.	.	.	.	.	.	24c
=36	=36	=36	=36	=36	=36	=36	=36	=36	=36	=36	=36
2.r	2G	2G	2GG	2gg	2b	2d	2d	2dd	2dd	24g	2B
.	.	.	.	.	.	.	.	.	.	24gg	.
.	.	.	.	.	.	.	.	.	.	24ff	.
.	.	.	.	.	.	.	.	.	.	24ee-	.
.	.	.	.	.	.	.	.	.	.	24dd	.
.	.	.	.	.	.	.	.	.	.	24cc	.
.	.	.	.	.	.	.	.	.	.	24b	.
.	.	.	.	.	.	.	.	.	.	24a-	.
.	.	.	.	.	.	.	.	.	.	24g	.
.	.	.	.	.	.	.	.	.	.	24f	.
.	.	.	.	.	.	.	.	.	.	24e-	.
.	.	.	.	.	.	.	.	.	.	24d	.
.	4A-	4A-	4A-	4ff	4cc	4c	4c	4r	4r	24c	4c
.	.	.	.	.	.	.	.	.	.	24B	.
.	.	.	.	.	.	.	.	.	.	24c	.
.	.	.	.	.	.	.	.	.	.	24e-	.
.	.	.	.	.	.	.	.	.	.	24d	.
.	.	.	.	.	.	.	.	.	.	24c	.
=37	=37	=37	=37	=37	=37	=37	=37	=37	=37	=37	=37
2.r	4F#	4F#	4F#	4aa	4cc	4d	4d	4r	4r	24a	24c
.	.	.	.	.	.	.	.	.	.	24c	24c
.	.	.	.	.	.	.	.	.	.	24d	24d
.	.	.	.	.	.	.	.	.	.	24e-	24e-
.	.	.	.	.	.	.	.	.	.	24d	24d
.	.	.	.	.	.	.	.	.	.	24c	24c
.	4G	4G	4G	4dd	4b	4g	4g	4dd	4dd	24B	24B
.	.	.	.	.	.	.	.	.	.	24G	24G
.	.	.	.	.	.	.	.	.	.	24B	24B
.	.	.	.	.	.	.	.	.	.	24d	24d
.	.	.	.	.	.	.	.	.	.	24B	24B
.	.	.	.	.	.	.	.	.	.	24d	24d
.	4r	4r	4r	4bb	4dd	4f	4f	4dd	4dd	24g	24g
.	.	.	.	.	.	.	.	.	.	24a-	24a-
.	.	.	.	.	.	.	.	.	.	24g	24g
.	.	.	.	.	.	.	.	.	.	24f	24f
.	.	.	.	.	.	.	.	.	.	24e-	24e-
.	.	.	.	.	.	.	.	.	.	24d	24d
=38	=38	=38	=38	=38	=38	=38	=38	=38	=38	=38	=38
2.r	2c	2c	2c	2ccc	2ee-	4e-	4e-	2dd	2dd	24r	2e-
.	.	.	.	.	.	.	.	.	.	24ccc	.
.	.	.	.	.	.	.	.	.	.	24bb-	.
.	.	.	.	.	.	.	.	.	.	24aa-	.
.	.	.	.	.	.	.	.	.	.	24gg	.
.	.	.	.	.	.	.	.	.	.	24ff	.
.	.	.	.	.	.	4c	4c	.	.	24ee-	.
.	.	.	.	.	.	.	.	.	.	24dd	.
.	.	.	.	.	.	.	.	.	.	24cc	.
.	.	.	.	.	.	.	.	.	.	24b-	.
.	.	.	.	.	.	.	.	.	.	24a-	.
.	.	.	.	.	.	.	.	.	.	24g	.
.	4d-	4d-	4d-	4bb-	[4ff	4d-	4d-	4cc	4cc	24f	24f
.	.	.	.	.	.	.	.	.	.	24e	24e
.	.	.	.	.	.	.	.	.	.	24f	24f
.	.	.	.	.	.	.	.	.	.	24a-	24a-
.	.	.	.	.	.	.	.	.	.	24g	24g
.	.	.	.	.	.	.	.	.	.	24f	24f
=39	=39	=39	=39	=39	=39	=39	=39	=39	=39	=39	=39
2.r	4B	4B	4B	4ddd	4ff]	4B	4B	4dd	4dd	24dd	24dd
.	.	.	.	.	.	.	.	.	.	24f	24f
.	.	.	.	.	.	.	.	.	.	24g	24g
.	.	.	.	.	.	.	.	.	.	24a-	24a-
.	.	.	.	.	.	.	.	.	.	24g	24g
.	.	.	.	.	.	.	.	.	.	24f	24f
.	4c	4c	4c	4gg	4ee	4c	4c	4dd	4dd	24e	24e
.	.	.	.	.	.	.	.	.	.	24c	24c
.	.	.	.	.	.	.	.	.	.	24e	24e
.	.	.	.	.	.	.	.	.	.	24g	24g
.	.	.	.	.	.	.	.	.	.	24e	24e
.	.	.	.	.	.	.	.	.	.	24g	24g
.	4A	4A	4A	[4ccc	4ee-	4F	4F	4cc	4cc	24cc	24cc
.	.	.	.	.	.	.	.	.	.	24e-	24e-
.	.	.	.	.	.	.	.	.	.	24f	24f
.	.	.	.	.	.	.	.	.	.	24g	24g
.	.	.	.	.	.	.	.	.	.	24f	24f
.	.	.	.	.	.	.	.	.	.	24e-	24e-
=40	=40	=40	=40	=40	=40	=40	=40	=40	=40	=40	=40
2.r	8B-	8B-	8B-	8ccc]	4dd	8B-	8B-	4cc	4cc	24d	24d
.	.	.	.	.	.	.	.	.	.	24f	24f
.	.	.	.	.	.	.	.	.	.	24cc	24cc
.	8G	8G	8G	4bb-	.	8G	8G	.	.	24b-	24b-
.	.	.	.	.	.	.	.	.	.	24e-	24e-
.	.	.	.	.	.	.	.	.	.	24d	24d
.	8A	8A	8A	.	4cc	8A	8A	2r	2r	24c	24c
.	.	.	.	.	.	.	.	.	.	24e-	24e-
.	.	.	.	.	.	.	.	.	.	24b-	24b-
.	8F#	8F#	8F#	4aa	.	8F#	8F#	.	.	24a	24a
.	.	.	.	.	.	.	.	.	.	24d	24d
.	.	.	.	.	.	.	.	.	.	24c	24c
.	8G	8G	8G	.	8b-	8G	8G	.	.	24B-	24B-
.	.	.	.	.	.	.	.	.	.	24d	24d
.	.	.	.	.	.	.	.	.	.	24a	24a
.	8e-	8E-	8E-	8gg	8gg	8E-	8E-	.	.	24g	24g
.	.	.	.	.	.	.	.	.	.	24e-	24e-
.	.	.	.	.	.	.	.	.	.	24c#	24c#
=41	=41	=41	=41	=41	=41	=41	=41	=41	=41	=41	=41
2.r	24d	24r	24r	4dd	4dd	24r	24r	2.r	2.r	2dd	2dd
.	24dd	24d	24d	.	.	24d	24d	.	.	.	.
.	24cc	24c	24c	.	.	24c	24c	.	.	.	.
.	24b-	24B-	24B-	.	.	24B-	24B-	.	.	.	.
.	24a	24A	24A	.	.	24A	24A	.	.	.	.
.	24g	24G	24G	.	.	24G	24G	.	.	.	.
.	24f	24F	24F	2r	2r	24F	24F	.	.	.	.
.	24e-	24E-	24E-	.	.	24E-	24E-	.	.	.	.
.	24d	24D	24D	.	.	24D	24D	.	.	.	.
.	24c	24C	24C	.	.	24C	24C	.	.	.	.
.	24B-	24BB-	24BB-	.	.	24BB-	24BB-	.	.	.	.
.	24A	24AA	24AA	.	.	24AA	24AA	.	.	.	.
.	24G	24GG	24GG	.	.	24GG	24GG	.	.	4ee-	4ee-
.	24B-	24BB-	24BB-	.	.	24BB-	24BB-	.	.	.	.
.	24e-	24E-	24E-	.	.	24E-	24E-	.	.	.	.
.	24g	24G	24G	.	.	24G	24G	.	.	.	.
.	24f#	24F#	24F#	.	.	24F#	24F#	.	.	.	.
.	24g	24G	24G	.	.	24G	24G	.	.	.	.
=42	=42	=42	=42	=42	=42	=42	=42	=42	=42	=42	=42
2.r	24a	24A	24A	2.r	2.r	24A	24A	2.r	2.r	4cc#	4cc#
.	24b-	24B-	24B-	.	.	24B-	24B-	.	.	.	.
.	24a	24A	24A	.	.	24A	24A	.	.	.	.
.	24g	24G	24G	.	.	24G	24G	.	.	.	.
.	24f	24F	24F	.	.	24F	24F	.	.	.	.
.	24e	24E	24E	.	.	24E	24E	.	.	.	.
.	8d	8D	8D	.	.	8D	8D	.	.	8dd	24dd
.	.	.	.	.	.	.	.	.	.	.	24d
.	.	.	.	.	.	.	.	.	.	.	24e
.	4.r	4.r	4.r	.	.	4.r	4.r	.	.	8cc	24f#
.	.	.	.	.	.	.	.	.	.	.	24g
.	.	.	.	.	.	.	.	.	.	.	24a
.	.	.	.	.	.	.	.	.	.	24b	8g
.	.	.	.	.	.	.	.	.	.	24g	.
.	.	.	.	.	.	.	.	.	.	24a	.
.	.	.	.	.	.	.	.	.	.	24b	8f
.	.	.	.	.	.	.	.	.	.	24cc	.
.	.	.	.	.	.	.	.	.	.	24dd	.
=43	=43	=43	=43	=43	=43	=43	=43	=43	=43	=43	=43
2.r	24r	24r	24r	4r	2r	2r	2r	4dd	4dd	8cc	24e
.	24c	24C	24C	.	.	.	.	.	.	.	24e
.	24d	24D	24D	.	.	.	.	.	.	.	24f
.	24e	24E	24E	.	.	.	.	.	.	8b-	24g
.	24f	24F	24F	.	.	.	.	.	.	.	24a
.	24g	24G	24G	.	.	.	.	.	.	.	24b-
.	4f	4F	4F	4aa	.	.	.	4ee	4ee	4aa 4a	24a
.	.	.	.	.	.	.	.	.	.	.	24dd
.	.	.	.	.	.	.	.	.	.	.	24cc
.	.	.	.	.	.	.	.	.	.	.	24b-
.	.	.	.	.	.	.	.	.	.	.	24a
.	.	.	.	.	.	.	.	.	.	.	24g
.	4dd	4d	4d	4bb-	4ff	4d	4d	4r	4r	4bb-	4f
=44	=44	=44	=44	=44	=44	=44	=44	=44	=44	=44	=44
2.r	4ee	4e	4e	4gg	4gg	4e	4e	2r	2r	24r	4g
.	.	.	.	.	.	.	.	.	.	24ee	.
.	.	.	.	.	.	.	.	.	.	24ff	.
.	.	.	.	.	.	.	.	.	.	24gg	.
.	.	.	.	.	.	.	.	.	.	24aa	.
.	.	.	.	.	.	.	.	.	.	24bb-	.
.	4cc#	4c#	4c#	4aa	4ee	4c#	4c#	.	.	24aa	4e
.	.	.	.	.	.	.	.	.	.	24a	.
.	.	.	.	.	.	.	.	.	.	24cc#	.
.	.	.	.	.	.	.	.	.	.	24ee	.
.	.	.	.	.	.	.	.	.	.	24ff	.
.	.	.	.	.	.	.	.	.	.	24gg	.
.	24dd	24d	24d	4ff	4ff	24d	24d	4cc	4cc	24ff	24f
.	24d	24D	24D	.	.	24D	24D	.	.	24d	24d
.	24e	24E	24E	.	.	24E	24E	.	.	24e	24e
.	24f	24F	24F	.	.	24F	24F	.	.	24f	24f
.	24g	24G	24G	.	.	24G	24G	.	.	24g	24g
.	24a	24A	24A	.	.	24A	24A	.	.	24a	24a
=45	=45	=45	=45	=45	=45	=45	=45	=45	=45	=45	=45
2.r	4b-	4B-	4B-	2ddd	2ff	4B-	4B-	2.cc	2.cc	24b-	24b-
.	.	.	.	.	.	.	.	.	.	24cc#	24cc#
.	.	.	.	.	.	.	.	.	.	24dd	24dd
.	.	.	.	.	.	.	.	.	.	24ff	24ff
.	.	.	.	.	.	.	.	.	.	24cc#	24cc#
.	.	.	.	.	.	.	.	.	.	24dd	24dd
.	4a	4A	4A	.	.	4A	4A	.	.	24ff	24ff
.	.	.	.	.	.	.	.	.	.	24cc#	24cc#
.	.	.	.	.	.	.	.	.	.	24dd	24dd
.	.	.	.	.	.	.	.	.	.	24ff	24ff
.	.	.	.	.	.	.	.	.	.	24cc#	24cc#
.	.	.	.	.	.	.	.	.	.	24dd	24dd
.	4g#	4G#	4G#	4ff	4dd	4G#	4G#	.	.	24ff	24ff
.	.	.	.	.	.	.	.	.	.	24d	24d
.	.	.	.	.	.	.	.	.	.	24e	24e
.	.	.	.	.	.	.	.	.	.	24f	24f
.	.	.	.	.	.	.	.	.	.	24e	24e
.	.	.	.	.	.	.	.	.	.	24d	24d
=46	=46	=46	=46	=46	=46	=46	=46	=46	=46	=46	=46
2aa	4a	4A	4A	4ee	4.cc#	4A	4A	2ee	2ee	24A	24A
.	.	.	.	.	.	.	.	.	.	24c#	24c#
.	.	.	.	.	.	.	.	.	.	24e	24e
.	.	.	.	.	.	.	.	.	.	24a	24a
.	.	.	.	.	.	.	.	.	.	24cc#	24cc#
.	.	.	.	.	.	.	.	.	.	24ee	24ee
.	4A	4AA	4AA	4aa	.	4AA	4AA	.	.	24aa	24a
.	.	.	.	.	.	.	.	.	.	24a	24g
.	.	.	.	.	.	.	.	.	.	24b	24f
.	.	.	.	.	8ee	.	.	.	.	24cc#	24e
.	.	.	.	.	.	.	.	.	.	24dd	24d
.	.	.	.	.	.	.	.	.	.	24ee	24c#
4ddd	4A	4AA	4AA	4gg#	4ff	4r	4r	4cc	4cc	24ff	8d
.	.	.	.	.	.	.	.	.	.	24d	.
.	.	.	.	.	.	.	.	.	.	24e	.
.	.	.	.	.	.	.	.	.	.	24f	8G#
.	.	.	.	.	.	.	.	.	.	24e	.
.	.	.	.	.	.	.	.	.	.	24d	.
=47	=47	=47	=47	=47	=47	=47	=47	=47	=47	=47	=47
2ccc#	24A	24AA	24AA	2aa	2ee	4c#	4c#	2ee	2ee	24A	24A
.	24A	24AA	24AA	.	.	.	.	.	.	24c#	24c#
.	24A	24AA	24AA	.	.	.	.	.	.	24e	24e
.	24A	24AA	24AA	.	.	.	.	.	.	24a	24a
.	24A	24AA	24AA	.	.	.	.	.	.	24cc#	24cc#
.	24A	24AA	24AA	.	.	.	.	.	.	24ee	24ee
.	24A	24AA	24AA	.	.	4C#	4C#	.	.	24aa	24a
.	24A	24AA	24AA	.	.	.	.	.	.	24a	24g
.	24A	24AA	24AA	.	.	.	.	.	.	24b	24f
.	24A	24AA	24AA	.	.	.	.	.	.	24cc#	24e
.	24A	24AA	24AA	.	.	.	.	.	.	24dd	24d
.	24A	24AA	24AA	.	.	.	.	.	.	24ee	24c#
4ddd	24A	24AA	24AA	4gg#	4ff	4r	4r	4cc	4cc	24ff	8d
.	24A	24AA	24AA	.	.	.	.	.	.	24d	.
.	24A	24AA	24AA	.	.	.	.	.	.	24e	.
.	24A	24AA	24AA	.	.	.	.	.	.	24f	8G#
.	24A	24AA	24AA	.	.	.	.	.	.	24e	.
.	24A	24AA	24AA	.	.	.	.	.	.	24d	.
=48	=48	=48	=48	=48	=48	=48	=48	=48	=48	=48	=48
24ccc#	24A	24AA	24AA	24aa	24ee	24AA	24AA	8ee	8ee	24aa	24A
24ccc#	24c#	24C#	24C#	24aa	24ee	24C#	24C#	.	.	24ee	24c#
24ccc#	24e	24E	24E	24aa	24ee	24E	24E	.	.	24cc#	24e
24ccc#	24a	24A	24A	24aa	24ee	24A	24A	8ee	8ee	24a	24a
24ccc#	24e	24E	24E	24aa	24ee	24E	24E	.	.	24e	24cc#
24ccc#	24c#	24C#	24C#	24aa	24ee	24C#	24C#	.	.	24c#	24ee
8ccc#	8A	8AA	8AA	8aa	8ee	8AA	8AA	8ee	8ee	8A	8aa
4.r	4.r	4.r	4.r	4.r	4.r	4.r	4.r	4.r	4.r	4.r	4.r
=49	=49	=49	=49	=49	=49	=49	=49	=49	=49	=49	=49
2.r	2.r	8r	2.r	2.r	2.r	2.r	2.r	2.r	2.r	2f	2A
.	.	8F	.	.	.	.	.	.	.	.	.
.	.	8D	.	.	.	.	.	.	.	.	.
.	.	8C	.	.	.	.	.	.	.	.	.
.	.	8BB-	.	.	.	.	.	.	.	4g	4B-
.	.	8GG	.	.	.	.	.	.	.	.	.
=50	=50	=50	=50	=50	=50	=50	=50	=50	=50	=50	=50
2.r	2.r	8C	2.r	2.r	2.r	2.r	2.r	2.r	2.r	4e	4G
.	.	8BB-	.	.	.	.	.	.	.	.	.
.	.	8AA	.	.	.	.	.	.	.	4f	4A
.	.	8GG	.	.	.	.	.	.	.	.	.
.	.	8FF	.	.	.	.	.	.	.	4r	4r
.	.	8EE	.	.	.	.	.	.	.	.	.
=51	=51	=51	=51	=51	=51	=51	=51	=51	=51	=51	=51
2.r	2.r	8DD	2.r	2.r	2.r	2.r	2.r	2.r	2.r	2a	2f
.	.	8c#	.	.	.	.	.	.	.	.	.
.	.	8d	.	.	.	.	.	.	.	.	.
.	.	8c	.	.	.	.	.	.	.	.	.
.	.	8B-	.	.	.	.	.	.	.	4b-	4g
.	.	8B	.	.	.	.	.	.	.	.	.
=52	=52	=52	=52	=52	=52	=52	=52	=52	=52	=52	=52
2.r	2.r	8c	2.r	2.r	2.r	2.r	2.r	2.r	2.r	4a	4f
.	.	8B	.	.	.	.	.	.	.	.	.
.	.	8c	.	.	.	.	.	.	.	8g	8e
.	.	8B-	.	.	.	.	.	.	.	4.r	4.r
.	.	8A	.	.	.	.	.	.	.	.	.
.	.	8G	.	.	.	.	.	.	.	.	.
=53	=53	=53	=53	=53	=53	=53	=53	=53	=53	=53	=53
8.ff	2.c	4F	4F	8.ff	4a	4c	4c	4cc	4cc	8.ff	4f 4A
32ee	.	.	.	32ee	.	.	.	.	.	32ee	.
32dd	.	.	.	32dd	.	.	.	.	.	32dd	.
8cc	.	2G	2G	8cc	8b-	8E	8E	8dd	8dd	8cc	2B- 2e
4.r	.	.	.	4.r	4.r	4.r	4.r	4.r	4.r	8b-	.
.	.	.	.	.	.	.	.	.	.	8g	.
.	.	.	.	.	.	.	.	.	.	8e	.
=54	=54	=54	=54	=54	=54	=54	=54	=54	=54	=54	=54
2.r	[4c	4A	4A	2.r	2.r	2.r	2.r	2.r	2.r	8f	4f
.	.	.	.	.	.	.	.	.	.	16.f	.
.	.	.	.	.	.	.	.	.	.	32a	.
.	8c]	8B-	8B-	.	.	.	.	.	.	8g	8e
.	4.r	4.r	4.r	.	.	.	.	.	.	4.r	4.r
=55	=55	=55	=55	=55	=55	=55	=55	=55	=55	=55	=55
8.ff	2.c	4F	4F	8.ff	4a	4c	4c	4cc	4cc	8.ff	4A 4f
32ee	.	.	.	32ee	.	.	.	.	.	32ee	.
32dd	.	.	.	32dd	.	.	.	.	.	32dd	.
8cc	.	2G	2G	8cc	8b-	8E	8E	8dd	8dd	8cc	2B- 2e
4.r	.	.	.	4.r	4.r	4.r	4.r	4.r	4.r	8b-	.
.	.	.	.	.	.	.	.	.	.	8g	.
.	.	.	.	.	.	.	.	.	.	8e	.
=56	=56	=56	=56	=56	=56	=56	=56	=56	=56	=56	=56
2.r	2F	2A	2A	2.r	2.r	2.r	2.r	2.r	2.r	8e-	4e- 4c
.	.	.	.	.	.	.	.	.	.	16.e-	.
.	.	.	.	.	.	.	.	.	.	32a	.
.	.	.	.	.	.	.	.	.	.	8cc	2r
.	.	.	.	.	.	.	.	.	.	4.r	.
.	4r	4r	4r	.	.	.	.	.	.	.	.
=57	=57	=57	=57	=57	=57	=57	=57	=57	=57	=57	=57
2.r	4B-	4BB-	4BB-	2.r	2.r	2.r	2.r	2.r	2.r	16r	4d
.	.	.	.	.	.	.	.	.	.	16c#	.
.	.	.	.	.	.	.	.	.	.	16d	.
.	.	.	.	.	.	.	.	.	.	16f#	.
.	2r	4r	4r	.	.	.	.	.	.	16g	6..r
.	.	.	.	.	.	.	.	.	.	16cc#	.
.	.	.	.	.	.	.	.	.	.	16ee	.
.	.	.	.	.	.	.	.	.	.	16dd	.
.	.	4BB-	4BB-	.	.	.	.	.	.	16cc	.
.	.	.	.	.	.	.	.	.	.	.	48r
.	.	.	.	.	.	.	.	.	.	16b-	16d
.	.	.	.	.	.	.	.	.	.	16a	16c
.	.	.	.	.	.	.	.	.	.	16g	16B-
=58	=58	=58	=58	=58	=58	=58	=58	=58	=58	=58	=58
2.r	4c	4C	4C	2.r	2.r	4.r	4.r	2.r	2.r	4f	4A
.	8C	8c	8c	.	.	.	.	.	.	8e	8G
.	8d	8B-	8B-	.	.	8d	8B-	.	.	4.r	4.r
.	8c	8A	8A	.	.	8c	8A	.	.	.	.
.	8e	8G	8G	.	.	8B-	8G	.	.	.	.
=59	=59	=59	=59	=59	=59	=59	=59	=59	=59	=59	=59
8.ff	16f	4F	4F	2.r	2.r	4A	4F	4cc	4cc	8.ff	16a
.	16c	.	.	.	.	.	.	.	.	.	16c
.	16f	.	.	.	.	.	.	.	.	.	16a
32gg	16c	.	.	.	.	.	.	.	.	32gg	16c
32ff	.	.	.	.	.	.	.	.	.	32ff	.
8ee	16g	2r	2r	.	.	2r	2r	2r	2r	8ee	16b-
.	16c	.	.	.	.	.	.	.	.	.	16c
8ff	16f	.	.	.	.	.	.	.	.	8ff	16a
.	16c	.	.	.	.	.	.	.	.	.	16c
8gg	16e	.	.	.	.	.	.	.	.	8gg	16g
.	16c	.	.	.	.	.	.	.	.	.	16c
8aa	16f	.	.	.	.	.	.	.	.	8aa	16f
.	16c	.	.	.	.	.	.	.	.	.	16c
=60	=60	=60	=60	=60	=60	=60	=60	=60	=60	=60	=60
8.bb-	16g	4C	4C	4.r	4.r	4.r	4.r	4.r	4.r	8.bb-	16e
.	16c	.	.	.	.	.	.	.	.	.	16c
.	16g	.	.	.	.	.	.	.	.	.	16e
16gg	16c	.	.	.	.	.	.	.	.	16gg	16c
8ee	16e	2r	2r	.	.	.	.	.	.	8ee	16g
.	16c	.	.	.	.	.	.	.	.	.	16c
4.r	16g	.	.	8gg	8ee	8B-	8C	8dd	8dd	4.r	16e
.	16c	.	.	.	.	.	.	.	.	.	16c
.	16e	.	.	8gg	8ee	8B-	8C	8dd	8dd	.	16g
.	16c	.	.	.	.	.	.	.	.	.	16c
.	16g	.	.	8gg	8ee	8B-	8C	8dd	8dd	.	16e
.	16c	.	.	.	.	.	.	.	.	.	16c
=61	=61	=61	=61	=61	=61	=61	=61	=61	=61	=61	=61
8.gg	16e	4C	4C	4gg	4ee	4B-	4C	4dd	4dd	8.gg	16b-
.	16c	.	.	.	.	.	.	.	.	.	16c
.	16e	.	.	.	.	.	.	.	.	.	16b-
32aa	16c	.	.	.	.	.	.	.	.	32aa	16c
32gg	.	.	.	.	.	.	.	.	.	32gg	.
8ff	16cc	2r	2r	2r	2r	2r	2r	8cc	8cc	8ff	16a
.	16c	.	.	.	.	.	.	.	.	.	16c
8gg	16b-	.	.	.	.	.	.	8dd	8dd	8gg	16e
.	16c	.	.	.	.	.	.	.	.	.	16c
8aa	16a	.	.	.	.	.	.	8ee	8ee	8aa	16f
.	16c	.	.	.	.	.	.	.	.	.	16c
8bb-	16e	.	.	.	.	.	.	8ff	8ff	8bb-	16g
.	16c	.	.	.	.	.	.	.	.	.	16c
=62	=62	=62	=62	=62	=62	=62	=62	=62	=62	=62	=62
8.ccc	16F	4FF	4FF	4.r	4.r	4.r	4.r	4gg	4gg	8.ccc	16a
.	16c	.	.	.	.	.	.	.	.	.	16c
.	16A	.	.	.	.	.	.	.	.	.	16f
16aa	16c	.	.	.	.	.	.	.	.	16aa	16c
8ff	16f	2r	2r	.	.	.	.	2r	2r	8ff	16a
.	16c	.	.	.	.	.	.	.	.	.	16c
4.r	16a	.	.	8ccc	8aa	8c	8A	.	.	4.r	16f
.	16c	.	.	.	.	.	.	.	.	.	16c
.	16f	.	.	8ccc	8aa	8c	8A	.	.	.	16a
.	16c	.	.	.	.	.	.	.	.	.	16c
.	16a	.	.	8aa	8ff	8c	8A	.	.	.	16f
.	16c	.	.	.	.	.	.	.	.	.	16c
=63	=63	=63	=63	=63	=63	=63	=63	=63	=63	=63	=63
8.ccc	16a	4D	4D	2ff#	2cc	4c	4A	2.r	2.r	8.ccc	16f#
.	16d	.	.	.	.	.	.	.	.	.	16d
.	16f#	.	.	.	.	.	.	.	.	.	16a
16aa	16d	.	.	.	.	.	.	.	.	16aa	16d
8ff#	16a	4r	4r	.	.	2r	2r	.	.	8ff#	16cc
.	16d	.	.	.	.	.	.	.	.	.	16d
16ff#	16f#	.	.	.	.	.	.	.	.	16ff#	16a
16ccc	16d	.	.	.	.	.	.	.	.	16ccc	16d
8r	16g	8G	8G	4ff	4b	.	.	.	.	8r	16b
.	16d	.	.	.	.	.	.	.	.	.	16d
8bb	16b	8r	8r	.	.	.	.	.	.	8bb	16g
.	16d	.	.	.	.	.	.	.	.	.	16d
=64	=64	=64	=64	=64	=64	=64	=64	=64	=64	=64	=64
8.bb-	16g	4C	4C	2ee	2b-	2G	2G	2.r	2.r	8.bb-	16e
.	16c	.	.	.	.	.	.	.	.	.	16c
.	16e	.	.	.	.	.	.	.	.	.	16g
16gg	16c	.	.	.	.	.	.	.	.	16gg	16c
8ee	16g	4r	4r	.	.	.	.	.	.	8ee	16b-
.	16c	.	.	.	.	.	.	.	.	.	16c
16ee	16e	.	.	.	.	.	.	.	.	16ee	16g
16bb-	16c	.	.	.	.	.	.	.	.	16bb-	16c
8r	16f	8F	8F	4ff	4a	8F	8F	.	.	8r	16a
.	16c	.	.	.	.	.	.	.	.	.	16c
8aa	16a	8r	8r	.	.	8r	8r	.	.	8aa	16f
.	16c	.	.	.	.	.	.	.	.	.	16c
=65	=65	=65	=65	=65	=65	=65	=65	=65	=65	=65	=65
24r	4d	4BB-	4BB-	8dd	2.r	2.r	2.r	2.r	2.r	24r	8.d
24ff#	.	.	.	.	.	.	.	.	.	24ff#	.
24gg	.	.	.	.	.	.	.	.	.	24gg	.
24aa	.	.	.	8r	.	.	.	.	.	24aa	.
24bb-	.	.	.	.	.	.	.	.	.	24bb-	.
.	.	.	.	.	.	.	.	.	.	.	16b-
24ddd	.	.	.	.	.	.	.	.	.	24ddd	.
6..ff	4c	2C	2C	8cc	.	.	.	.	.	6..ff	4a
.	.	.	.	8r	.	.	.	.	.	.	.
.	4B-	.	.	8.b-	.	.	.	.	.	.	4g
24ee	.	.	.	.	.	.	.	.	.	24ee	.
24ff	.	.	.	.	.	.	.	.	.	24ff	.
24gg	.	.	.	.	.	.	.	.	.	24gg	.
24bb-	.	.	.	.	.	.	.	.	.	24bb-	.
.	.	.	.	16g	.	.	.	.	.	.	.
24ee	.	.	.	.	.	.	.	.	.	24ee	.
=66	=66	=66	=66	=66	=66	=66	=66	=66	=66	=66	=66
8ff	4A	4FF	4FF	8a	2.r	2.r	2.r	2.r	2.r	8ff	4a
3..r	.	.	.	6r	.	.	.	.	.	6r	.
.	8F	8F	8F	.	.	.	.	.	.	.	2r
.	.	.	.	24a	.	.	.	.	.	24A	.
.	.	.	.	24b-	.	.	.	.	.	24B-	.
.	4.r	4.r	4.r	24cc	.	.	.	.	.	24c	.
.	.	.	.	24dd	.	.	.	.	.	24d	.
.	.	.	.	24ee	.	.	.	.	.	24e	.
.	.	.	.	24ff	.	.	.	.	.	24f	.
.	.	.	.	24gg	.	.	.	.	.	24g	.
.	.	.	.	24aa-	.	.	.	.	.	24a-	.
.	.	.	.	24aa	.	.	.	.	.	24a	.
.	.	.	.	24bb-	.	.	.	.	.	24b-	.
24r	.	.	.	24bb	.	.	.	.	.	24b	.
=67	=67	=67	=67	=67	=67	=67	=67	=67	=67	=67	=67
4r	16a	4D	4D	8.ccc	2.r	2f#	2c	2.r	2.r	8.cc	16f#
.	16d	.	.	.	.	.	.	.	.	.	16d
.	16f#	.	.	.	.	.	.	.	.	.	16a
.	16d	.	.	16aa	.	.	.	.	.	16a	16d
4eee-	16a	4r	4r	8ff#	.	.	.	.	.	8f#	16cc
.	16d	.	.	.	.	.	.	.	.	.	16d
.	16f#	.	.	16ff#	.	.	.	.	.	16f#	16a
.	16d	.	.	16ccc	.	.	.	.	.	16cc	16d
8ddd	16g	8G	8G	8r	.	4f	4B	.	.	8r	16b
.	16d	.	.	.	.	.	.	.	.	.	16d
8r	16b	8r	8r	8bb	.	.	.	.	.	8b	16g
.	16d	.	.	.	.	.	.	.	.	.	16d
=68	=68	=68	=68	=68	=68	=68	=68	=68	=68	=68	=68
4r	16g	4C	4C	8.bb-	2.r	2e	2B-	2dd	2dd	8.b-	16e
.	16c	.	.	.	.	.	.	.	.	.	16c
.	16e	.	.	.	.	.	.	.	.	.	16g
.	16c	.	.	16gg	.	.	.	.	.	16g	16c
4ddd-	16g	4r	4r	8ee	.	.	.	.	.	8e	16b-
.	16c	.	.	.	.	.	.	.	.	.	16c
.	16e	.	.	16ee	.	.	.	.	.	16e	16g
.	16c	.	.	16bb-	.	.	.	.	.	16b-	16c
8ccc	16f	8F	8F	8r	.	4f	4A	4ee	4ee	8r	16a
.	16c	.	.	.	.	.	.	.	.	.	16c
8r	16a	8r	8r	8aa	.	.	.	.	.	8a	16f
.	16c	.	.	.	.	.	.	.	.	.	16c
=69	=69	=69	=69	=69	=69	=69	=69	=69	=69	=69	=69
2.r	4d	4BB-	4BB-	24r	2.r	8B-	8B-	2.r	2.r	24r	8.d
.	.	.	.	24ff#	.	.	.	.	.	24f#	.
.	.	.	.	24gg	.	.	.	.	.	24g	.
.	.	.	.	24aa	.	8r	8r	.	.	24a	.
.	.	.	.	24bb-	.	.	.	.	.	24b-	.
.	.	.	.	.	.	.	.	.	.	.	16B-
.	.	.	.	24ddd	.	.	.	.	.	24dd	.
.	4c	2C	2C	6..ff	.	8c	8c	.	.	6..f	4A
.	.	.	.	.	.	8r	8r	.	.	.	.
.	4B-	.	.	.	.	8C	8C	.	.	.	8G
.	.	.	.	24ee	.	.	.	.	.	24e	.
.	.	.	.	24ff	.	.	.	.	.	24f	.
.	.	.	.	24gg	.	8r	8r	.	.	24g	8e
.	.	.	.	24bb-	.	.	.	.	.	24b-	.
.	.	.	.	24ee	.	.	.	.	.	24e	.
=70	=70	=70	=70	=70	=70	=70	=70	=70	=70	=70	=70
2.r	8.A	8.D	8.D	8.ff	2.r	2.r	2.r	2.r	2.r	8.f	8.f
.	16F	16D	16D	16bb-	.	.	.	.	.	16b-	16f
.	8F	8D	8D	8bb-	.	.	.	.	.	8b-	8f
.	4.r	4.r	4.r	4.r	.	.	.	.	.	4.r	4.r
=71	=71	=71	=71	=71	=71	=71	=71	=71	=71	=71	=71
24cc	24B- 24C	24E	24E	24bb-	24gg	24E	24E	8dd	8dd	24e	24g 24c
24cc	24B- 24C	24E	24E	24bb-	24gg	24E	24E	.	.	24g	24g 24c
24cc	24B- 24C	24E	24E	24bb-	24gg	24E	24E	.	.	24b-	24g 24c
24cc	24B- 24C	24E	24E	24bb-	24gg	24E	24E	8dd	8dd	24cc	24g 24c
24cc	24B- 24C	24E	24E	24bb-	24gg	24E	24E	.	.	24ee	24g 24c
24cc	24B- 24C	24E	24E	24bb-	24gg	24E	24E	.	.	24gg	24g 24c
8cc	8B- 8C	8E	8E	8bb-	8gg	8E	8E	8dd	8dd	8bb-	8g 8c
4.r	4.r	4.r	4.r	4.r	4.r	4.r	4.r	4.r	4.r	4.r	4.r
=72	=72	=72	=72	=72	=72	=72	=72	=72	=72	=72	=72
2.r	2.r	24r	2.r	2ff	2a	2.r	2.r	2.r	2.r	2.r	2.r
.	.	24FF	.	.	.	.	.	.	.	.	.
.	.	24GG	.	.	.	.	.	.	.	.	.
.	.	24AA	.	.	.	.	.	.	.	.	.
.	.	24BB-	.	.	.	.	.	.	.	.	.
.	.	24C	.	.	.	.	.	.	.	.	.
.	.	24D	.	.	.	.	.	.	.	.	.
.	.	24E	.	.	.	.	.	.	.	.	.
.	.	24F	.	.	.	.	.	.	.	.	.
.	.	24E	.	.	.	.	.	.	.	.	.
.	.	24D	.	.	.	.	.	.	.	.	.
.	.	24C	.	.	.	.	.	.	.	.	.
.	.	24BB-	.	4gg	4b-	.	.	.	.	.	.
.	.	24D	.	.	.	.	.	.	.	.	.
.	.	24F#	.	.	.	.	.	.	.	.	.
.	.	24G	.	.	.	.	.	.	.	.	.
.	.	24A	.	.	.	.	.	.	.	.	.
.	.	24B-	.	.	.	.	.	.	.	.	.
=73	=73	=73	=73	=73	=73	=73	=73	=73	=73	=73	=73
2.r	2.r	24c	2.r	4ee	4g	2.r	2.r	2.r	2.r	6..r	6..r
.	.	24d	.	.	.	.	.	.	.	.	.
.	.	24c	.	.	.	.	.	.	.	.	.
.	.	24B-	.	.	.	.	.	.	.	.	.
.	.	24A	.	.	.	.	.	.	.	.	.
.	.	24G	.	.	.	.	.	.	.	.	.
.	.	8F	.	8ff	8a	.	.	.	.	.	.
.	.	.	.	.	.	.	.	.	.	24aa	24ff
.	.	.	.	.	.	.	.	.	.	24aa	24ff
.	.	4.r	.	4.r	4.r	.	.	.	.	24aa	24ff
.	.	.	.	.	.	.	.	.	.	24aa	24ff
.	.	.	.	.	.	.	.	.	.	24aa	24ff
.	.	.	.	.	.	.	.	.	.	8aa	8ff
.	.	.	.	.	.	.	.	.	.	8r	8r
=74	=74	=74	=74	=74	=74	=74	=74	=74	=74	=74	=74
2.r	2.r	24r	2.r	2aa	2ff	2.r	2.r	2.r	2.r	2.r	2.r
.	.	24FF	.	.	.	.	.	.	.	.	.
.	.	24GG	.	.	.	.	.	.	.	.	.
.	.	24AA	.	.	.	.	.	.	.	.	.
.	.	24BB-	.	.	.	.	.	.	.	.	.
.	.	24C	.	.	.	.	.	.	.	.	.
.	.	24D	.	.	.	.	.	.	.	.	.
.	.	24E	.	.	.	.	.	.	.	.	.
.	.	24F	.	.	.	.	.	.	.	.	.
.	.	24E	.	.	.	.	.	.	.	.	.
.	.	24D	.	.	.	.	.	.	.	.	.
.	.	24C	.	.	.	.	.	.	.	.	.
.	.	24BB-	.	4bb-	4gg	.	.	.	.	.	.
.	.	24D	.	.	.	.	.	.	.	.	.
.	.	24F#	.	.	.	.	.	.	.	.	.
.	.	24G	.	.	.	.	.	.	.	.	.
.	.	24A	.	.	.	.	.	.	.	.	.
.	.	24B-	.	.	.	.	.	.	.	.	.
=75	=75	=75	=75	=75	=75	=75	=75	=75	=75	=75	=75
2.r	2.r	24c	2.r	4aa	4ff	2.r	2.r	2.r	2.r	6..r	6..r
.	.	24B	.	.	.	.	.	.	.	.	.
.	.	24c	.	.	.	.	.	.	.	.	.
.	.	24d	.	.	.	.	.	.	.	.	.
.	.	24c	.	.	.	.	.	.	.	.	.
.	.	24B	.	.	.	.	.	.	.	.	.
.	.	8c	.	8gg	8ee	.	.	.	.	.	.
.	.	.	.	.	.	.	.	.	.	24ccc	24cc
.	.	.	.	.	.	.	.	.	.	24ccc	24cc
.	.	4.r	.	4.r	4.r	.	.	.	.	24ccc	24cc
.	.	.	.	.	.	.	.	.	.	24ccc	24cc
.	.	.	.	.	.	.	.	.	.	24ccc	24cc
.	.	.	.	.	.	.	.	.	.	24ccc	24cc
.	.	.	.	.	.	.	.	.	.	24ddd	24dd
.	.	.	.	.	.	.	.	.	.	24ccc	24cc
.	.	.	.	.	.	.	.	.	.	24bb-	24b-
.	.	.	.	.	.	.	.	.	.	24aa	24a
.	.	.	.	.	.	.	.	.	.	24gg	24g
=76	=76	=76	=76	=76	=76	=76	=76	=76	=76	=76	=76
2r	8a	8F	8F	4r	8.ff	24F	2.r	2r	2r	8ff	8f
.	.	.	.	.	.	24A	.	.	.	.	.
.	.	.	.	.	.	24c	.	.	.	.	.
.	8r	8r	8r	.	.	24F	.	.	.	8r	8r
.	.	.	.	.	.	24A	.	.	.	.	.
.	.	.	.	.	32ee	.	.	.	.	.	.
.	.	.	.	.	.	24c	.	.	.	.	.
.	.	.	.	.	32dd	.	.	.	.	.	.
.	8g	8c	8c	8.bb-	8cc	24G	.	.	.	8ee	8b-
.	.	.	.	.	.	24B-	.	.	.	.	.
.	.	.	.	.	.	24c	.	.	.	.	.
.	4.r	4.r	4.r	.	8b-	24G	.	.	.	4.r	4.r
.	.	.	.	.	.	24B-	.	.	.	.	.
.	.	.	.	48aa	.	.	.	.	.	.	.
.	.	.	.	48gg	.	24c	.	.	.	.	.
.	.	.	.	48ff	.	.	.	.	.	.	.
8.ccc	.	.	.	8ee	8g	24G	.	4dd	4dd	.	.
.	.	.	.	.	.	24B-	.	.	.	.	.
.	.	.	.	.	.	24c	.	.	.	.	.
.	.	.	.	8gg	8e	24G	.	.	.	.	.
.	.	.	.	.	.	24B-	.	.	.	.	.
48bb-	.	.	.	.	.	.	.	.	.	.	.
48aa	.	.	.	.	.	24c	.	.	.	.	.
48gg	.	.	.	.	.	.	.	.	.	.	.
=77	=77	=77	=77	=77	=77	=77	=77	=77	=77	=77	=77
8ff	8a	8F	8F	8aa	8.ff	24F	2.r	8ee	8ee	8ff	8a
.	.	.	.	.	.	24A	.	.	.	.	.
.	.	.	.	.	.	24c	.	.	.	.	.
4.r	8r	8r	8r	8r	.	24F	.	4.r	4.r	8r	8r
.	.	.	.	.	.	24A	.	.	.	.	.
.	.	.	.	.	32ee	.	.	.	.	.	.
.	.	.	.	.	.	24c	.	.	.	.	.
.	.	.	.	.	32dd	.	.	.	.	.	.
.	8g	8c	8c	8.bb-	8cc	24G	.	.	.	8ee	8b-
.	.	.	.	.	.	24B-	.	.	.	.	.
.	.	.	.	.	.	24c	.	.	.	.	.
.	4.r	4.r	4.r	.	8b-	24G	.	.	.	4.r	4.r
.	.	.	.	.	.	24B-	.	.	.	.	.
.	.	.	.	48aa	.	.	.	.	.	.	.
.	.	.	.	48gg	.	24c	.	.	.	.	.
.	.	.	.	48ff	.	.	.	.	.	.	.
8.ccc	.	.	.	8ee	8g	24G	.	4dd	4dd	.	.
.	.	.	.	.	.	24B-	.	.	.	.	.
.	.	.	.	.	.	24c	.	.	.	.	.
.	.	.	.	8gg	8e	24G	.	.	.	.	.
.	.	.	.	.	.	24B-	.	.	.	.	.
48bb-	.	.	.	.	.	.	.	.	.	.	.
48aa	.	.	.	.	.	24c	.	.	.	.	.
48gg	.	.	.	.	.	.	.	.	.	.	.
=78	=78	=78	=78	=78	=78	=78	=78	=78	=78	=78	=78
4ff	24f	24A	24A	4ff	2ff	4A	4A	8cc	8cc	24f	24f
.	24f	24A	24A	.	.	.	.	.	.	24ff	24ff
.	24f	24A	24A	.	.	.	.	.	.	24ff	24ff
.	24f	24A	24A	.	.	.	.	8cc	8cc	24ff	24ff
.	24f	24A	24A	.	.	.	.	.	.	24ff	24ff
.	24f	24A	24A	.	.	.	.	.	.	24ff	24ff
4gg	24f	24B-	24B-	4gg	.	4B-	4B-	8cc	8cc	24g	24ff
.	24f	24B-	24B-	.	.	.	.	.	.	24gg	24ff
.	24f	24B-	24B-	.	.	.	.	.	.	24gg	24ff
.	24f	24B-	24B-	.	.	.	.	8cc	8cc	24gg	24ff
.	24f	24B-	24B-	.	.	.	.	.	.	24gg	24ff
.	24f	24B-	24B-	.	.	.	.	.	.	24gg	24ff
4aa	24f	24c	24c	4aa	4ee-	4c	4c	8cc	8cc	24a	24ee-
.	24f	24c	24c	.	.	.	.	.	.	24aa	24ee-
.	24f	24c	24c	.	.	.	.	.	.	24aa	24ee-
.	24f	24c	24c	.	.	.	.	8cc	8cc	24aa	24ee-
.	24f	24c	24c	.	.	.	.	.	.	24aa	24ee-
.	24f	24c	24c	.	.	.	.	.	.	24aa	24ee-
=79	=79	=79	=79	=79	=79	=79	=79	=79	=79	=79	=79
4bb-	24f	24d	24d	4bb-	4dd	4d	4d	8cc	8cc	24b-	24dd
.	24f	24d	24d	.	.	.	.	.	.	24bb-	24ff 24b-
.	24f	24d	24d	.	.	.	.	.	.	24bb-	24b- 24ff
.	24f	24d	24d	.	.	.	.	8cc	8cc	24bb-	24b- 24ff
.	24f	24d	24d	.	.	.	.	.	.	24bb-	24ff 24b-
.	24f	24d	24d	.	.	.	.	.	.	24bb-	24ff 24b-
8ddd	8d	8B-	8B-	8ddd	8ddd	8B-	8B-	8cc	8cc	8ddd	8ff 8b-
4.r	4.r	4.r	4.r	4.r	4.r	4.r	4.r	4.r	4.r	4.r	4.r
=80	=80	=80	=80	=80	=80	=80	=80	=80	=80	=80	=80
2.r	4c	4C	4C	2.r	2.r	2.r	2.r	2.r	2.r	24ccc	8f 8A
.	.	.	.	.	.	.	.	.	.	24aa	.
.	.	.	.	.	.	.	.	.	.	24ff	.
.	.	.	.	.	.	.	.	.	.	24cc	8r
.	.	.	.	.	.	.	.	.	.	24a	.
.	.	.	.	.	.	.	.	.	.	24f	.
.	4r	4r	4r	.	.	.	.	.	.	4c	4A
.	4G	4C	4C	.	.	.	.	.	.	4e	4B-
=81	=81	=81	=81	=81	=81	=81	=81	=81	=81	=81	=81
2.r	4A	2.FF	2.FF	2ff	2.r	2f	2.r	2.r	2.r	4e-	4A
.	2B-	.	.	.	.	.	.	.	.	4d	2B-
.	.	.	.	4gg	.	4g	.	.	.	4d-	.
=82	=82	=82	=82	=82	=82	=82	=82	=82	=82	=82	=82
2.r	4G	4FF	4FF	4ee	2.r	4e	2.r	2.r	2.r	4d-	4B-
.	8A	2r	2r	8ff	.	8f	.	.	.	8c	8A
.	4.r	.	.	4.r	.	4.r	.	.	.	4.r	4.r
=83	=83	=83	=83	=83	=83	=83	=83	=83	=83	=83	=83
2.r	4g	4C	4C	2.r	2.r	2.r	2.r	2.r	2.r	4b-	4e
.	8f	8F	8F	.	.	.	.	.	.	8a	8f
.	4.r	4.r	4.r	.	.	.	.	.	.	4.r	4.r
=84	=84	=84	=84	=84	=84	=84	=84	=84	=84	=84	=84
2.gg	4G	4C	4C	2.ee	2.b-	2.c	2.r	2.r	2.r	24ee	4B- 4e
.	.	.	.	.	.	.	.	.	.	24gg	.
.	.	.	.	.	.	.	.	.	.	24ccc	.
.	.	.	.	.	.	.	.	.	.	24bb-	.
.	.	.	.	.	.	.	.	.	.	24aa	.
.	.	.	.	.	.	.	.	.	.	24gg	.
.	2r	2r	2r	.	.	.	.	.	.	24ff	2r
.	.	.	.	.	.	.	.	.	.	24ee	.
.	.	.	.	.	.	.	.	.	.	24dd	.
.	.	.	.	.	.	.	.	.	.	24cc	.
.	.	.	.	.	.	.	.	.	.	24b-	.
.	.	.	.	.	.	.	.	.	.	24a	.
.	.	.	.	.	.	.	.	.	.	24g	.
.	.	.	.	.	.	.	.	.	.	24f	.
.	.	.	.	.	.	.	.	.	.	24e	.
.	.	.	.	.	.	.	.	.	.	24d	.
.	.	.	.	.	.	.	.	.	.	24c	.
.	.	.	.	.	.	.	.	.	.	24B-	.
=85	=85	=85	=85	=85	=85	=85	=85	=85	=85	=85	=85
8aa	4A	4F	4F	8ff	8a	8F	2.r	2r	2r	8A	4f 4A
4.r	.	.	.	4.r	4.r	4.r	.	.	.	4.r	.
.	4r	4r	4r	.	.	.	.	.	.	.	4r
8aa	8c	8F	8F	8ff	8cc	8F	.	8cc	8e	8A 8f	8f 8A
8r	8r	8r	8r	8r	8r	8r	.	8r	8r	8r	8r
=86	=86	=86	=86	=86	=86	=86	=86	=86	=86	=86	=86
8aa	8c	8F	8F	8ff	8cc	8F	2.r	8cc	8e	8f 8A	8f 8A
3..r	3..r	3..r	3..r	3..r	3..r	3..r	.	2r	2r	3..r	3..r
.	.	.	.	.	.	.	.	8r	8r	.	.
24r	24r	24r	24r	24r	24r	24r	.	.	.	24r	24r
==	==	==	==	==	==	==	==	==	==	==	==
*-	*-	*-	*-	*-	*-	*-	*-	*-	*-	*-	*-
!!!RWG1: This file contains only pitch and duration data.
!!!RWG2: Transposing instruments are not transposed.
!!!RWG3: Spines may have incompatible meters.
!!!RWG4: Durations of rests and tied notes may be interpreted.
!!!RWG: Key is interpreted using the Humdrum key tool.
!!!AFT: stage1
!!!END: 1997/04/15
!!format changes:
!!content changes:
!!public access: complete
!!!KEY: 1167084207
!!!EMD: Converted from MuseData to Humdrum Dec 16, 2000, by Andreas Kornstaedt using muse2kern.
